;FLAVOR:UltiGCode
;TIME:1664
;MATERIAL:7625
;MATERIAL2:0
;NOZZLE_DIAMETER:0.400000
;NOZZLE_DIAMETER2:0.400000

;Layer count: 165
;LAYER:0
M107
G0 F6600 X49.906 Y56.456 Z0.300
;TYPE:SKIRT
G1 F1200 X51.200 Y55.670 E0.18168
G1 X52.680 Y55.339 E0.36367
G1 X53.780 Y55.374 E0.49574
G1 X55.488 Y55.894 E0.70998
G1 X56.416 Y56.732 E0.86003
G1 X57.246 Y57.692 E1.01232
G1 X57.788 Y59.442 E1.23216
G1 X57.755 Y60.298 E1.33495
G1 X57.634 Y61.383 E1.46596
G1 X57.163 Y62.515 E1.61309
G1 X56.401 Y63.592 E1.77141
G1 X55.324 Y64.500 E1.94045
G1 X54.810 Y64.720 E2.00754
G1 X54.333 Y64.979 E2.07267
G1 X52.433 Y65.367 E2.30538
G1 X50.209 Y64.647 E2.58590
G1 X48.677 Y63.177 E2.84068
G1 X48.002 Y61.407 E3.06800
G1 X47.976 Y60.416 E3.18696
G1 X48.097 Y59.306 E3.32095
G1 X48.397 Y58.476 E3.42686
G1 X48.963 Y57.450 E3.56747
G1 X49.906 Y56.456 E3.73189
G0 F6600 X50.160 Y56.770
G1 F1200 X51.352 Y56.046 E3.89924
G1 X52.718 Y55.740 E4.06723
G1 X53.714 Y55.772 E4.18681
G1 X55.286 Y56.251 E4.38401
G1 X56.130 Y57.012 E4.52038
G1 X56.889 Y57.891 E4.65974
G1 X57.386 Y59.495 E4.86125
G1 X57.356 Y60.268 E4.95408
G1 X57.243 Y61.282 E5.07651
G1 X56.811 Y62.321 E5.21154
G1 X56.104 Y63.319 E5.35831
G1 X55.112 Y64.156 E5.51406
G1 X54.638 Y64.358 E5.57589
G1 X54.194 Y64.599 E5.63651
G1 X52.456 Y64.954 E5.84938
G1 X50.419 Y64.294 E6.10633
G1 X49.018 Y62.950 E6.33930
G1 X48.400 Y61.329 E6.54748
G1 X48.377 Y60.432 E6.65515
G1 X48.490 Y59.397 E6.78009
G1 X48.763 Y58.642 E6.87643
G1 X49.289 Y57.688 E7.00716
G1 X50.160 Y56.770 E7.15901
G0 F6600 X50.413 Y57.084
G1 F1200 X51.503 Y56.422 E7.31205
G1 X52.755 Y56.142 E7.46600
G1 X53.648 Y56.170 E7.57321
G1 X55.085 Y56.608 E7.75348
G1 X55.843 Y57.292 E7.87600
G1 X56.532 Y58.089 E8.00243
G1 X56.984 Y59.548 E8.18572
G1 X56.957 Y60.238 E8.26858
G1 X56.852 Y61.181 E8.38244
G1 X56.459 Y62.126 E8.50525
G1 X55.807 Y63.046 E8.64057
G1 X54.900 Y63.811 E8.78295
G1 X54.462 Y63.998 E8.84010
G1 X54.056 Y64.219 E8.89557
G1 X52.479 Y64.541 E9.08872
G1 X50.630 Y63.942 E9.32195
G1 X49.360 Y62.724 E9.53311
G1 X48.798 Y61.250 E9.72241
G1 X48.778 Y60.449 E9.81856
G1 X48.882 Y59.487 E9.93467
G1 X49.128 Y58.807 E10.02145
G1 X49.614 Y57.926 E10.14219
G1 X50.413 Y57.084 E10.28148
G0 F6600 X62.259 Y59.301
G1 F1200 X62.774 Y57.615 E10.49303
G1 X64.344 Y55.944 E10.76817
G1 X66.281 Y55.354 E11.01115
G1 X67.378 Y55.354 E11.14279
G1 X68.786 Y55.665 E11.31582
G1 X70.096 Y56.453 E11.49927
G1 X71.041 Y57.458 E11.66481
G1 X71.603 Y58.476 E11.80435
G1 X71.901 Y59.300 E11.90950
G1 X72.030 Y60.457 E12.04920
G1 X71.981 Y61.446 E12.16803
G1 X71.330 Y63.172 E12.38939
G1 X69.787 Y64.653 E12.64604
G1 X67.551 Y65.368 E12.92774
G1 X65.760 Y64.994 E13.14730
G1 X64.609 Y64.441 E13.30053
G1 X63.606 Y63.596 E13.45791
G1 X62.837 Y62.518 E13.61681
G1 X62.371 Y61.388 E13.76349
G1 X62.226 Y60.156 E13.91235
G1 X62.259 Y59.301 E14.01503
G0 F6600 X62.657 Y59.368
G1 F1200 X63.129 Y57.821 E14.20912
G1 X64.562 Y56.296 E14.46023
G1 X66.341 Y55.754 E14.68340
G1 X67.334 Y55.754 E14.80256
G1 X68.636 Y56.042 E14.96258
G1 X69.843 Y56.767 E15.13154
G1 X70.715 Y57.695 E15.28435
G1 X71.237 Y58.642 E15.41411
G1 X71.508 Y59.391 E15.50969
G1 X71.629 Y60.470 E15.63998
G1 X71.584 Y61.363 E15.74728
G1 X70.988 Y62.946 E15.95025
G1 X69.577 Y64.300 E16.18492
G1 X67.530 Y64.955 E16.44283
G1 X65.889 Y64.613 E16.64398
G1 X64.828 Y64.103 E16.78525
G1 X63.902 Y63.322 E16.93061
G1 X63.189 Y62.323 E17.07789
G1 X62.761 Y61.287 E17.21241
G1 X62.627 Y60.140 E17.35098
G1 X62.657 Y59.368 E17.44369
G0 F6600 X63.054 Y59.435
G1 F1200 X63.484 Y58.027 E17.62035
G1 X64.781 Y56.647 E17.84762
G1 X66.400 Y56.154 E18.05070
G1 X67.290 Y56.154 E18.15750
G1 X68.486 Y56.418 E18.30448
G1 X69.589 Y57.082 E18.45897
G1 X70.389 Y57.933 E18.59913
G1 X70.872 Y58.807 E18.71896
G1 X71.116 Y59.483 E18.80520
G1 X71.228 Y60.482 E18.92583
G1 X71.188 Y61.281 E19.02183
G1 X70.646 Y62.720 E19.20636
G1 X69.367 Y63.947 E19.41904
G1 X67.508 Y64.542 E19.65327
G1 X66.019 Y64.231 E19.83581
G1 X65.047 Y63.764 E19.96521
G1 X64.199 Y63.049 E20.09831
G1 X63.541 Y62.128 E20.23414
G1 X63.152 Y61.186 E20.35644
G1 X63.028 Y60.125 E20.48463
G1 X63.054 Y59.435 E20.56749
G10
G1 Z0.375
G0 F6600 X53.135 Y60.221
;TYPE:WALL-INNER
G1 Z0.300
G11
G1 F1200 X53.114 Y60.274 E20.57433
G1 X52.986 Y60.454 E20.60083
G1 X52.884 Y60.540 E20.61684
G1 X52.740 Y60.609 E20.63600
G1 X52.699 Y60.617 E20.64102
G1 X52.630 Y60.595 E20.64971
G1 X52.608 Y60.573 E20.65344
G1 X52.591 Y60.530 E20.65899
G1 X52.609 Y60.364 E20.67903
G1 X52.706 Y60.188 E20.70314
G1 X52.820 Y60.068 E20.72300
G1 X52.941 Y59.995 E20.73996
G1 X53.069 Y59.966 E20.75571
G1 X53.142 Y59.988 E20.76486
G1 X53.156 Y60.035 E20.77074
G1 X53.135 Y60.221 E20.79321
G0 F6600 X53.464 Y60.472
;TYPE:WALL-OUTER
G1 F1200 X53.284 Y60.726 E20.83056
G1 X53.096 Y60.885 E20.86011
G1 X52.879 Y60.989 E20.88899
G1 X52.675 Y61.031 E20.91398
G1 X52.419 Y60.948 E20.94627
G1 X52.265 Y60.800 E20.97191
G1 X52.183 Y60.584 E20.99963
G1 X52.219 Y60.259 E21.03887
G1 X52.381 Y59.950 E21.08074
G1 X52.567 Y59.754 E21.11316
G1 X52.791 Y59.618 E21.14461
G1 X53.077 Y59.554 E21.17978
G1 X53.091 Y59.554 E21.18146
G1 X53.369 Y59.639 E21.21634
G1 X53.494 Y59.774 E21.23842
G1 X53.563 Y59.995 E21.26620
G1 X53.526 Y60.322 E21.30569
G1 X53.464 Y60.472 E21.32517
G10
G1 Z0.375
G0 F6600 X66.865 Y60.219
;TYPE:WALL-INNER
G1 Z0.300
G11
G1 F1200 X66.844 Y60.038 E21.34703
G1 X66.859 Y59.987 E21.35341
G1 X66.928 Y59.966 E21.36207
G1 X67.061 Y59.995 E21.37840
G1 X67.180 Y60.067 E21.39509
G1 X67.294 Y60.187 E21.41496
G1 X67.391 Y60.364 E21.43918
G1 X67.410 Y60.531 E21.45935
G1 X67.394 Y60.574 E21.46485
G1 X67.371 Y60.596 E21.46867
G1 X67.304 Y60.618 E21.47713
G1 X67.250 Y60.607 E21.48375
G1 X67.128 Y60.548 E21.50001
G1 X67.012 Y60.451 E21.51815
G1 X66.888 Y60.277 E21.54379
G1 X66.865 Y60.219 E21.55128
G0 F6600 X66.535 Y60.470
;TYPE:WALL-OUTER
G1 F1200 X66.475 Y60.324 E21.57022
G1 X66.437 Y59.999 E21.60949
G1 X66.504 Y59.779 E21.63708
G1 X66.639 Y59.635 E21.66077
G1 X66.905 Y59.554 E21.69414
G1 X66.921 Y59.554 E21.69606
G1 X67.210 Y59.618 E21.73158
G1 X67.433 Y59.752 E21.76280
G1 X67.619 Y59.950 E21.79540
G1 X67.765 Y60.215 E21.83170
G1 X67.782 Y60.260 E21.83748
G1 X67.818 Y60.581 E21.87624
G1 X67.735 Y60.801 E21.90445
G1 X67.581 Y60.949 E21.93008
G1 X67.327 Y61.030 E21.96208
G1 X67.116 Y60.987 E21.98792
G1 X66.909 Y60.887 E22.01550
G1 X66.717 Y60.725 E22.04565
G1 X66.535 Y60.470 E22.08324
;LAYER:1
M106 S255
G10
G1 Z0.375
G0 F6600 X55.066 Y59.881 Z0.800
;TYPE:WALL-INNER
G1 Z0.800
G11
G1 F1380 X55.055 Y60.158 E22.13869
G1 X54.959 Y60.735 E22.25567
G1 X54.836 Y61.079 E22.32874
G1 X54.567 Y61.537 E22.43497
G1 X54.356 Y61.783 E22.49979
G1 X54.104 Y62.012 E22.56789
G1 X53.726 Y62.285 E22.66115
G1 X53.341 Y62.490 E22.74838
G1 X52.899 Y62.642 E22.84186
G1 X52.687 Y62.694 E22.88552
G1 X52.461 Y62.721 E22.93104
G1 X52.214 Y62.728 E22.98046
G1 X51.971 Y62.719 E23.02909
G1 X51.609 Y62.646 E23.10295
G1 X51.293 Y62.516 E23.17129
G1 X51.068 Y62.366 E23.22537
G1 X50.885 Y62.197 E23.27519
G1 X50.741 Y62.020 E23.32083
G1 X50.633 Y61.851 E23.36094
G1 X50.556 Y61.689 E23.39682
G1 X50.490 Y61.477 E23.44122
G1 X50.457 Y61.312 E23.47488
G1 X50.441 Y61.129 E23.51162
G1 X50.493 Y60.615 E23.61494
G1 X50.651 Y60.047 E23.73285
G1 X50.849 Y59.590 E23.83246
G1 X51.090 Y59.193 E23.92535
G1 X51.412 Y58.784 E24.02946
G1 X51.779 Y58.438 E24.13033
G1 X52.234 Y58.147 E24.23835
G1 X52.574 Y58.005 E24.31205
G1 X53.100 Y57.884 E24.41999
G1 X53.462 Y57.881 E24.49240
G1 X53.716 Y57.939 E24.54450
G1 X53.963 Y58.034 E24.59743
G1 X54.160 Y58.155 E24.64367
G1 X54.409 Y58.359 E24.70805
G1 X54.607 Y58.573 E24.76636
G1 X54.841 Y58.949 E24.85493
G1 X54.918 Y59.118 E24.89208
G1 X54.989 Y59.352 E24.94098
G1 X55.048 Y59.664 E25.00449
G1 X55.066 Y59.881 E25.04804
G0 F6600 X55.446 Y59.617
;TYPE:WALL-OUTER
G1 F1380 X55.467 Y59.871 E25.09901
G1 X55.454 Y60.199 E25.16466
G1 X55.348 Y60.837 E25.29401
G1 X55.200 Y61.249 E25.38157
G1 X54.895 Y61.769 E25.50214
G1 X54.643 Y62.062 E25.57943
G1 X54.353 Y62.326 E25.65786
G1 X53.941 Y62.623 E25.75944
G1 X53.502 Y62.857 E25.85893
G1 X53.004 Y63.029 E25.96431
G1 X52.763 Y63.088 E26.01393
G1 X52.210 Y63.129 E26.12483
G1 X51.926 Y63.118 E26.18168
G1 X51.490 Y63.030 E26.27064
G1 X51.108 Y62.872 E26.35331
G1 X50.819 Y62.681 E26.42259
G1 X50.590 Y62.469 E26.48501
G1 X50.416 Y62.255 E26.54017
G1 X50.283 Y62.048 E26.58938
G1 X50.184 Y61.838 E26.63581
G1 X50.062 Y61.376 E26.73138
G1 X50.040 Y61.135 E26.77978
G1 X50.100 Y60.535 E26.90038
G1 X50.274 Y59.913 E27.02955
G1 X50.494 Y59.403 E27.14064
G1 X50.757 Y58.970 E27.24196
G1 X51.117 Y58.512 E27.35847
G1 X51.535 Y58.120 E27.47308
G1 X52.047 Y57.792 E27.59469
G1 X52.445 Y57.625 E27.68102
G1 X53.061 Y57.484 E27.80740
G1 X53.504 Y57.481 E27.89601
G1 X53.833 Y57.555 E27.96345
G1 X54.142 Y57.674 E28.02967
G1 X54.388 Y57.826 E28.08751
G1 X54.686 Y58.070 E28.16454
G1 X54.926 Y58.330 E28.23531
G1 X55.196 Y58.763 E28.33736
G1 X55.293 Y58.974 E28.38381
G1 X55.377 Y59.251 E28.44170
G1 X55.446 Y59.617 E28.51619
G0 F6600 X54.902 Y59.648
;TYPE:SKIN
G1 F1380 X51.973 Y62.577 E29.34463
G0 F6600 X51.525 Y62.460
G1 F1380 X54.793 Y59.191 E30.26911
G0 F6600 X54.597 Y58.822
G1 F1380 X51.160 Y62.259 E31.24124
G0 F6600 X50.883 Y61.970
G1 F1380 X54.351 Y58.503 E32.22199
G0 F6600 X54.042 Y58.245
G1 F1380 X50.678 Y61.610 E33.17362
G0 F6600 X50.583 Y61.139
G1 F1380 X53.655 Y58.067 E34.04251
G0 F6600 X53.134 Y58.022
G1 F1380 X50.676 Y60.480 E34.73774
G0 F6600 X52.548 Y62.568
G1 F1380 X54.904 Y60.212 E35.40412
G0 F6600 X54.734 Y60.948
G1 F1380 X53.365 Y62.317 E35.79133
G0 F6600 X51.031 Y59.560
G1 F1380 X52.334 Y58.257 E36.15987
G10
G1 Z0.875
G0 F6600 X64.935 Y59.883
;TYPE:WALL-INNER
G1 Z0.800
G11
G1 F1380 X65.007 Y59.362 E36.26506
G1 X65.083 Y59.115 E36.31675
G1 X65.189 Y58.886 E36.36722
G1 X65.327 Y58.657 E36.42069
G1 X65.461 Y58.486 E36.46414
G1 X65.634 Y58.316 E36.51265
G1 X65.837 Y58.155 E36.56447
G1 X66.036 Y58.033 E36.61115
G1 X66.281 Y57.938 E36.66371
G1 X66.547 Y57.881 E36.71811
G1 X66.911 Y57.885 E36.79092
G1 X67.218 Y57.946 E36.85352
G1 X67.515 Y58.035 E36.91553
G1 X67.777 Y58.150 E36.97275
G1 X68.009 Y58.281 E37.02604
G1 X68.405 Y58.596 E37.12724
G1 X68.751 Y58.977 E37.23017
G1 X69.033 Y59.374 E37.32757
G1 X69.276 Y59.848 E37.43410
G1 X69.421 Y60.268 E37.52296
G1 X69.505 Y60.604 E37.59223
G1 X69.547 Y60.890 E37.65004
G1 X69.559 Y61.141 E37.70030
G1 X69.543 Y61.312 E37.73465
G1 X69.494 Y61.541 E37.78149
G1 X69.359 Y61.862 E37.85113
G1 X69.255 Y62.025 E37.88980
G1 X69.115 Y62.197 E37.93416
G1 X68.933 Y62.366 E37.98383
G1 X68.700 Y62.521 E38.03980
G1 X68.412 Y62.642 E38.10228
G1 X68.026 Y62.719 E38.18100
G1 X67.792 Y62.727 E38.22783
G1 X67.396 Y62.705 E38.30715
G1 X66.976 Y62.599 E38.39378
G1 X66.666 Y62.492 E38.45937
G1 X66.270 Y62.280 E38.54921
G1 X65.899 Y62.012 E38.64074
G1 X65.564 Y61.697 E38.73271
G1 X65.437 Y61.542 E38.77279
G1 X65.162 Y61.077 E38.88083
G1 X65.038 Y60.732 E38.95415
G1 X64.947 Y60.186 E39.06486
G1 X64.935 Y59.883 E39.12551
G0 F6600 X64.546 Y60.195
;TYPE:WALL-OUTER
G1 F1380 X64.534 Y59.872 E39.19015
G1 X64.560 Y59.566 E39.25157
G1 X64.619 Y59.264 E39.31312
G1 X64.707 Y58.975 E39.37354
G1 X64.834 Y58.700 E39.43412
G1 X65.000 Y58.426 E39.49819
G1 X65.159 Y58.223 E39.54976
G1 X65.372 Y58.014 E39.60944
G1 X65.608 Y57.827 E39.66966
G1 X65.857 Y57.673 E39.72822
G1 X66.168 Y57.553 E39.79489
G1 X66.507 Y57.480 E39.86424
G1 X66.956 Y57.486 E39.95405
G1 X67.306 Y57.555 E40.02540
G1 X67.653 Y57.659 E40.09785
G1 X67.957 Y57.793 E40.16429
G1 X68.224 Y57.944 E40.22564
G1 X68.460 Y58.113 E40.28370
G1 X68.687 Y58.312 E40.34407
G1 X69.060 Y58.723 E40.45508
G1 X69.371 Y59.159 E40.56219
G1 X69.646 Y59.695 E40.68267
G1 X69.804 Y60.152 E40.77938
G1 X69.898 Y60.529 E40.85709
G1 X69.945 Y60.849 E40.92178
G1 X69.959 Y61.149 E40.98184
G1 X69.891 Y61.612 E41.07543
G1 X69.715 Y62.048 E41.16947
G1 X69.582 Y62.257 E41.21902
G1 X69.410 Y62.469 E41.27362
G1 X69.179 Y62.683 E41.33659
G1 X68.892 Y62.874 E41.40554
G1 X68.516 Y63.030 E41.48696
G1 X68.075 Y63.118 E41.57690
G1 X67.796 Y63.128 E41.63273
G1 X67.332 Y63.102 E41.72568
G1 X66.501 Y62.859 E41.89884
G1 X66.057 Y62.620 E41.99969
G1 X65.648 Y62.325 E42.10055
G1 X65.270 Y61.969 E42.20440
G1 X65.107 Y61.771 E42.25569
G1 X64.798 Y61.247 E42.37735
G1 X64.652 Y60.841 E42.46364
G1 X64.567 Y60.391 E42.55523
G1 X64.546 Y60.195 E42.59466
G0 F6600 X65.092 Y60.207
;TYPE:SKIN
G1 F1380 X67.209 Y58.089 E43.19358
G0 F6600 X67.628 Y58.236
G1 F1380 X65.173 Y60.691 E43.88796
G0 F6600 X65.335 Y61.095
G1 F1380 X67.987 Y58.443 E44.63806
G0 F6600 X68.302 Y58.694
G1 F1380 X65.545 Y61.451 E45.41785
G0 F6600 X65.818 Y61.743
G1 F1380 X68.572 Y58.989 E46.19680
G0 F6600 X68.815 Y59.312
G1 F1380 X66.125 Y62.002 E46.95765
G0 F6600 X66.465 Y62.227
G1 F1380 X69.024 Y59.668 E47.68144
G0 F6600 X66.711 Y58.022
G1 F1380 X65.111 Y59.621 E48.13385
G0 F6600 X65.477 Y58.690
G1 F1380 X65.826 Y58.341 E48.23256
G0 F6600 X69.199 Y60.059
G1 F1380 X66.850 Y62.408 E48.89696
G0 F6600 X67.290 Y62.534
G1 F1380 X69.331 Y60.492 E49.47438
G0 F6600 X69.409 Y60.980
G1 F1380 X67.803 Y62.586 E49.92863
G0 F6600 X68.503 Y62.452
G1 F1380 X69.287 Y61.668 E50.15038
;LAYER:2
G10
G1 Z0.875
G0 F6600 X55.990 Y60.362 Z1.300
;TYPE:WALL-INNER
G1 Z1.300
G11
G1 F1620 X55.923 Y60.912 E50.26119
G1 X55.855 Y61.233 E50.32682
G1 X55.738 Y61.571 E50.39835
G1 X55.532 Y61.972 E50.48851
G1 X55.332 Y62.253 E50.55750
G1 X54.910 Y62.664 E50.67531
G1 X54.470 Y63.001 E50.78616
G1 X54.053 Y63.244 E50.88268
G1 X53.595 Y63.438 E50.98216
G1 X53.358 Y63.515 E51.03200
G1 X52.849 Y63.634 E51.13655
G1 X52.078 Y63.688 E51.29112
G1 X51.550 Y63.648 E51.39703
G1 X51.002 Y63.522 E51.50949
G1 X50.612 Y63.364 E51.59364
G1 X50.226 Y63.116 E51.68540
G1 X50.008 Y62.906 E51.74594
G1 X49.840 Y62.687 E51.80115
G1 X49.720 Y62.488 E51.84762
G1 X49.567 Y62.102 E51.93067
G1 X49.521 Y61.905 E51.97113
G1 X49.467 Y61.465 E52.05979
G1 X49.460 Y61.249 E52.10301
G1 X49.506 Y60.668 E52.21957
G1 X49.622 Y60.147 E52.32632
G1 X49.786 Y59.660 E52.42910
G1 X49.969 Y59.238 E52.52109
G1 X50.187 Y58.829 E52.61379
G1 X50.507 Y58.361 E52.72718
G1 X50.835 Y57.991 E52.82607
G1 X51.168 Y57.699 E52.91464
G1 X51.619 Y57.403 E53.02254
G1 X51.990 Y57.219 E53.10536
G1 X52.302 Y57.107 E53.17166
G1 X52.626 Y57.018 E53.23886
G1 X52.977 Y56.953 E53.31025
G1 X53.369 Y56.931 E53.38878
G1 X53.862 Y56.985 E53.48797
G1 X53.996 Y57.019 E53.51562
G1 X54.264 Y57.119 E53.57283
G1 X54.533 Y57.261 E53.63366
G1 X54.875 Y57.519 E53.71934
G1 X55.135 Y57.778 E53.79274
G1 X55.470 Y58.221 E53.90382
G1 X55.610 Y58.469 E53.96078
G1 X55.820 Y58.974 E54.07016
G1 X55.942 Y59.474 E54.17310
G1 X55.999 Y60.078 E54.29443
G1 X55.990 Y60.362 E54.35126
G0 F6600 X56.399 Y60.093
;TYPE:WALL-OUTER
G1 F1620 X56.390 Y60.386 E54.40989
G1 X56.318 Y60.975 E54.52857
G1 X56.240 Y61.340 E54.60321
G1 X56.106 Y61.732 E54.68607
G1 X55.876 Y62.179 E54.78661
G1 X55.636 Y62.516 E54.86935
G1 X55.177 Y62.962 E54.99735
G1 X54.694 Y63.333 E55.11916
G1 X54.229 Y63.603 E55.22670
G1 X53.728 Y63.816 E55.33558
G1 X53.476 Y63.898 E55.38858
G1 X52.914 Y64.029 E55.50400
G1 X52.655 Y64.062 E55.55622
G1 X52.065 Y64.089 E55.67434
G1 X51.491 Y64.044 E55.78949
G1 X50.889 Y63.907 E55.91297
G1 X50.418 Y63.715 E56.01470
G1 X49.979 Y63.433 E56.11905
G1 X49.706 Y63.169 E56.19500
G1 X49.507 Y62.909 E56.26049
G1 X49.362 Y62.669 E56.31657
G1 X49.183 Y62.215 E56.41417
G1 X49.126 Y61.971 E56.46428
G1 X49.067 Y61.487 E56.56180
G1 X49.059 Y61.240 E56.61123
G1 X49.109 Y60.608 E56.73802
G1 X49.220 Y60.103 E56.84143
G1 X49.413 Y59.514 E56.96539
